packages/astro-components-stencil/src/icons/hdr-on.svg

<svg xmlns="http://www.w3.org/2000/svg" viewBox="0 0 24 24"><g xmlns="http://www.w3.org/2000/svg" id="hdr-on" fill-rule="nonzero">
            <path d="M7.25 9c-.41 0-.75.34-.75.75V11h-2V9.75c0-.41-.34-.75-.75-.75S3 9.34 3 9.75v4.5c0 .41.34.75.75.75s.75-.34.75-.75V12.5h2v1.75c0 .41.34.75.75.75s.75-.34.75-.75v-4.5C8 9.34 7.66 9 7.25 9zM21 11.5v-1c0-.83-.67-1.5-1.5-1.5H17c-.55 0-1 .45-1 1v4.25c0 .41.34.75.75.75s.75-.34.75-.75V13h1.1l.72 1.59a.693.693 0 001.27-.55l-.49-1.14c.5-.3.9-.8.9-1.4zm-3.5 0v-1h2v1h-2zM13 9h-3c-.28 0-.5.22-.5.5v5c0 .28.22.5.5.5h3c.82 0 1.5-.68 1.5-1.5v-3c0-.82-.68-1.5-1.5-1.5zm0 4.5h-2v-3h2v3z"/>
        </g></svg>

<svg width="24" height="24" viewBox="0 0 24 24" fill="none" xmlns="http://www.w3.org/2000/svg">
<path fill-rule="evenodd" clip-rule="evenodd" d="M7.25 9C6.84 9 6.5 9.34 6.5 9.75V11H4.5V9.75C4.5 9.34 4.16 9 3.75 9C3.34 9 3 9.34 3 9.75V14.25C3 14.66 3.34 15 3.75 15C4.16 15 4.5 14.66 4.5 14.25V12.5H6.5V14.25C6.5 14.66 6.84 15 7.25 15C7.66 15 8 14.66 8 14.25V9.75C8 9.34 7.66 9 7.25 9ZM21 10.5C21 9.67 20.33 9 19.5 9H17C16.45 9 16 9.45 16 10V14.25C16 14.66 16.34 15 16.75 15C17.16 15 17.5 14.66 17.5 14.25V13H18.6L19.32 14.59C19.43 14.84 19.68 15 19.95 15C20.45 15 20.78 14.49 20.59 14.04L20.1 12.9C20.6 12.6 21 12.1 21 11.5V10.5ZM19.5 10.5H17.5V11.5H19.5V10.5ZM13 9H10C9.72 9 9.5 9.22 9.5 9.5V14.5C9.5 14.78 9.72 15 10 15H13C13.82 15 14.5 14.32 14.5 13.5V10.5C14.5 9.68 13.82 9 13 9ZM11 13.5H13V10.5H11V13.5Z" fill="black"/>
</svg>
